X: 14997
T: Gentle Maiden, The
R: waltz
M: 3/4
K: Gmajor
F|:"G"G>AG "D7"FED|"G"d3 "C"efg|"G"d>cB "am"A2~G|1 "am"E3E2"D7"F:|2 "G"G3G2 d||
"G"defg2g|g3"C"gfe|"G"d>cB "am"A2~G|"am"E3E2"D7"F|
"G"G>AG "D7"FED|"G"d3 "C"efg|"G"d>cB "D7"A2~G|"G"G3G2||

